develop/images/public/title03.svg

<?xml version="1.0" encoding="UTF-8"?><svg id="_レイヤー_2" xmlns="http://www.w3.org/2000/svg" viewBox="0 0 777.66 144.48"><defs><style>.cls-1{fill:#fff;}</style></defs><g id="_レイヤー_1-2"><path class="cls-1" d="M32.11,70.06H0V1.06h30.94v2.11H6.72v27.89h21.83v2.11H6.72v34.78h25.39v2.11Z"/><path class="cls-1" d="M97.67,71.11L55.28,13.72v56.33h-2.06V0l42.39,56.83V1.11h2.06v70Z"/><path class="cls-1" d="M163.67,3.17h-18.06v66.89h-6.72V3.17h-18.28V1.06h43.06v2.11Z"/><path class="cls-1" d="M230.03,70.11h-7.31l-22.06-38.33c1.07.07,2.11.11,3.11.11,9.81,0,14.72-4.61,14.72-13.83,0-10.18-6.17-15.18-18.5-15h-4.5v67.06h-6.67V1.17c1.04-.07,5.06-.11,12.06-.11,16.18-.15,24.28,5.42,24.28,16.71,0,4.44-1.44,8.08-4.33,10.91-2.88,2.83-6.8,4.54-11.76,5.14l20.95,36.29Z"/><path class="cls-1" d="M299.83,70.06h-7.04l-11.37-29.22h-15.88v-2.11h15.05l-10.45-27.02-22.55,58.35h-2.38S272.44,0,272.44,0l27.39,70.06Z"/><path class="cls-1" d="M365.66,71.11l-42.39-57.39v56.33h-2.06V0l42.39,56.83V1.11h2.06v70Z"/><path class="cls-1" d="M440.11,60.49c-5.19,6.82-12.2,10.23-21.06,10.23s-15.77-3.52-22.08-10.55c-6.32-7.03-9.47-15.25-9.47-24.65s2.85-17.76,8.56-24.65c5.81-7.03,12.87-10.55,21.17-10.55s14.83,2.3,20.17,6.89l-2.61,3.11c-4.85-5.26-10.7-7.89-17.55-7.89s-12.09,3.24-16.17,9.73c-3.89,6.15-5.83,13.94-5.83,23.35s2.26,17.01,6.78,23.35c4.56,6.49,10.24,9.73,17.06,9.73,7.89,0,13.94-3.46,18.17-10.39l2.89,2.27Z"/><path class="cls-1" d="M494.99,70.06h-32.11V1.06h30.94v2.11h-24.22v27.89h21.83v2.11h-21.83v34.78h25.39v2.11Z"/><path class="cls-1" d="M596.44,70h-6.72v-36.83h-32.94v36.83h-6.72V1.17h6.72v29.89h32.94V1.17h6.72v68.83Z"/><path class="cls-1" d="M672.05,70.06h-7.04l-11.37-29.22h-15.88v-2.11h15.05l-10.44-27.02-22.55,58.35h-2.38S644.66,0,644.66,0l27.39,70.06Z"/><path class="cls-1" d="M725.55,70.06h-32.11V1.06h6.72v66.89h25.39v2.11Z"/><path class="cls-1" d="M777.66,70.06h-32.11V1.06h6.72v66.89h25.39v2.11Z"/><path class="cls-1" d="M170.26,88.98c-6.54,5.46-11.88,15.48-11.88,27.6s5.52,22.32,11.88,27.6v.3h-3.6c-6.06-5.46-11.46-15.54-11.46-27.9s5.4-22.44,11.46-27.9h3.6v.3Z"/><path class="cls-1" d="M202.99,125.89c0,4.2-1.83,7.28-5.5,9.23-2.93,1.56-6.79,2.31-11.57,2.27-.82,0-3.33-.02-7.53-.07v-41.33h7c3.93,0,7.21.62,9.83,1.87,3.42,1.62,5.13,4.09,5.13,7.4,0,2.02-.83,4.02-2.5,6-1.51,1.82-3.29,3.17-5.33,4.03,2.96.53,5.37,1.62,7.23,3.27,2.16,1.93,3.23,4.38,3.23,7.33ZM199.03,125.89c0-3.33-1.04-5.83-3.13-7.5-1.78-1.4-4.14-2.12-7.1-2.17h-2.27v-1.27h1.8c2.84,0,4.99-1.13,6.43-3.4,1.07-1.69,1.6-3.61,1.6-5.77,0-5.73-3.83-8.6-11.5-8.6h-2.5v38.93h2.27c9.6,0,14.4-3.41,14.4-10.23Z"/><path class="cls-1" d="M241.04,137.36h-4.38l-13.23-23c.64.04,1.27.07,1.87.07,5.89,0,8.83-2.77,8.83-8.3,0-6.11-3.7-9.11-11.1-9h-2.7v40.23h-4v-41.37c.62-.04,3.03-.07,7.23-.07,9.71-.09,14.57,3.25,14.57,10.03,0,2.67-.87,4.85-2.6,6.55-1.73,1.7-4.08,2.73-7.05,3.08l12.57,21.78Z"/><path class="cls-1" d="M272.96,137.33h-19.27v-41.4h18.57v1.27h-14.53v16.73h13.1v1.27h-13.1v20.87h15.23v1.27Z"/><path class="cls-1" d="M304.89,137.33h-19.27v-41.4h18.57v1.27h-14.53v16.73h13.1v1.27h-13.1v20.87h15.23v1.27Z"/><path class="cls-1" d="M342.92,137.36l-25.37-.03,20.67-40.1h-19v-1.23l23.67-.03-20.65,40.13h20.68v1.27Z"/><path class="cls-1" d="M374.12,137.33h-19.27v-41.4h18.57v1.27h-14.53v16.73h13.1v1.27h-13.1v20.87h15.23v1.27Z"/><path class="cls-1" d="M438.02,131.58c-3.11,4.09-7.32,6.14-12.63,6.14s-9.46-2.11-13.25-6.33c-3.79-4.22-5.68-9.15-5.68-14.79s1.71-10.66,5.13-14.79c3.49-4.22,7.72-6.33,12.7-6.33s8.9,1.38,12.1,4.13l-1.57,1.87c-2.91-3.15-6.42-4.73-10.53-4.73s-7.25,1.95-9.7,5.84c-2.33,3.69-3.5,8.36-3.5,14.01s1.35,10.21,4.07,14.01c2.73,3.89,6.14,5.84,10.23,5.84,4.73,0,8.37-2.08,10.9-6.23l1.73,1.36Z"/><path class="cls-1" d="M492.95,116.61c0,5.95-1.91,10.92-5.73,14.92-3.89,4.13-8.86,6.2-14.9,6.2s-11.02-2.06-14.93-6.2c-3.8-4-5.7-8.97-5.7-14.92s1.9-10.9,5.7-14.92c3.91-4.13,8.89-6.2,14.93-6.2s11.01,2.07,14.9,6.2c3.82,4.02,5.73,8.99,5.73,14.92ZM488.52,116.61c0-5.71-1.46-10.45-4.37-14.22-3.04-3.93-6.99-5.9-11.83-5.9s-8.82,1.97-11.87,5.9c-2.91,3.78-4.37,8.52-4.37,14.22s1.46,10.45,4.37,14.22c3.04,3.93,7,5.89,11.87,5.89s8.79-1.96,11.83-5.89c2.91-3.77,4.37-8.52,4.37-14.22Z"/><path class="cls-1" d="M534.12,124.39c0,4.18-1.44,7.51-4.33,10-2.62,2.22-5.87,3.33-9.73,3.33s-7.09-1.12-9.73-3.37c-2.89-2.47-4.33-5.79-4.33-9.97v-28.43h4.03v28.17c0,8.13,3.34,12.2,10.03,12.2s10.03-4.07,10.03-12.2v-28.17h4.03v28.43Z"/><path class="cls-1" d="M572.47,137.36h-4.38l-13.23-23c.64.04,1.27.07,1.87.07,5.89,0,8.83-2.77,8.83-8.3,0-6.11-3.7-9.11-11.1-9h-2.7v40.23h-4v-41.37c.62-.04,3.03-.07,7.23-.07,9.71-.09,14.57,3.25,14.57,10.03,0,2.67-.87,4.85-2.6,6.55-1.73,1.7-4.08,2.73-7.05,3.08l12.57,21.78Z"/><path class="cls-1" d="M610.92,97.19h-10.83v40.13h-4.03v-40.13h-10.97v-1.27h25.83v1.27Z"/><path class="cls-1" d="M617.29,144.18c6.54-5.46,11.88-15.48,11.88-27.6s-5.52-22.32-11.88-27.6v-.3h3.6c6.12,5.46,11.46,15.54,11.46,27.9s-5.34,22.44-11.46,27.9h-3.6v-.3Z"/></g></svg>

<svg id="_レイヤー_1-2" xmlns="http://www.w3.org/2000/svg" width="777.66" height="71.11" viewBox="0 0 777.66 71.11">
  <path id="パス_18" data-name="パス 18" d="M32.11,70.06H0v-69H30.94V3.17H6.72V31.06H28.55v2.11H6.72V67.95H32.11Z" fill="#fff"/>
  <path id="パス_19" data-name="パス 19" d="M97.67,71.11,55.28,13.72V70.05H53.22V0L95.61,56.83V1.11h2.06Z" fill="#fff"/>
  <path id="パス_20" data-name="パス 20" d="M163.67,3.17H145.61V70.06h-6.72V3.17H120.61V1.06h43.06V3.17Z" fill="#fff"/>
  <path id="パス_21" data-name="パス 21" d="M230.03,70.11h-7.31L200.66,31.78c1.07.07,2.11.11,3.11.11q14.715,0,14.72-13.83,0-15.27-18.5-15h-4.5V70.12h-6.67V1.17q1.56-.105,12.06-.11,24.27-.225,24.28,16.71a14.607,14.607,0,0,1-4.33,10.91q-4.32,4.245-11.76,5.14l20.95,36.29Z" fill="#fff"/>
  <path id="パス_22" data-name="パス 22" d="M299.83,70.06h-7.04L281.42,40.84H265.54V38.73h15.05L270.14,11.71,247.59,70.06h-2.38L272.44,0l27.39,70.06Z" fill="#fff"/>
  <path id="パス_23" data-name="パス 23" d="M365.66,71.11,323.27,13.72V70.05h-2.06V0L363.6,56.83V1.11h2.06v70Z" fill="#fff"/>
  <path id="パス_24" data-name="パス 24" d="M440.11,60.49q-7.785,10.23-21.06,10.23c-8.86,0-15.77-3.52-22.08-10.55a35.7,35.7,0,0,1-9.47-24.65,37.664,37.664,0,0,1,8.56-24.65Q404.775.325,417.23.32c8.3,0,14.83,2.3,20.17,6.89l-2.61,3.11a23.02,23.02,0,0,0-17.55-7.89c-6.85,0-12.09,3.24-16.17,9.73q-5.835,9.225-5.83,23.35c0,9.41,2.26,17.01,6.78,23.35q6.84,9.735,17.06,9.73,11.835,0,18.17-10.39l2.89,2.27Z" fill="#fff"/>
  <path id="パス_25" data-name="パス 25" d="M494.99,70.06H462.88v-69h30.94V3.17H469.6V31.06h21.83v2.11H469.6V67.95h25.39Z" fill="#fff"/>
  <path id="パス_26" data-name="パス 26" d="M596.44,70h-6.72V33.17H556.78V70h-6.72V1.17h6.72V31.06h32.94V1.17h6.72Z" fill="#fff"/>
  <path id="パス_27" data-name="パス 27" d="M672.05,70.06h-7.04L653.64,40.84H637.76V38.73h15.05L642.37,11.71,619.82,70.06h-2.38L644.66,0Z" fill="#fff"/>
  <path id="パス_28" data-name="パス 28" d="M725.55,70.06H693.44v-69h6.72V67.95h25.39Z" fill="#fff"/>
  <path id="パス_29" data-name="パス 29" d="M777.66,70.06H745.55v-69h6.72V67.95h25.39Z" fill="#fff"/>
</svg>
